Newaita-dark/apps/24/libreoffice-draw.svg

<svg height="24" viewBox="0 0 24 24" width="24" xmlns="http://www.w3.org/2000/svg" xmlns:xlink="http://www.w3.org/1999/xlink"><linearGradient id="a" gradientTransform="matrix(.0558089 0 0 .0468795 -1.972752 10.079089)" gradientUnits="userSpaceOnUse" x1="254" x2="254" y1="233.5" y2="254.666672"><stop offset="0" stop-opacity=".27451"/><stop offset="1" stop-opacity="0"/></linearGradient><linearGradient id="b"><stop offset="0" stop-opacity=".313726"/><stop offset=".222222" stop-opacity=".27451"/><stop offset="1" stop-opacity="0"/></linearGradient><radialGradient id="c" cx="450.908936" cy="189.579361" gradientTransform="matrix(.00000013 -.0585994 -.105479 -.00000008 37.857636 47.696499)" gradientUnits="userSpaceOnUse" r="21.166656" xlink:href="#b"/><radialGradient id="d" cx="450.908936" cy="189.579361" gradientTransform="matrix(-.00000013 .0585994 .105479 .00000008 -14.042861 -5.645609)" gradientUnits="userSpaceOnUse" r="21.166656" xlink:href="#b"/><radialGradient id="e" cx="450.908936" cy="189.579361" gradientTransform="matrix(-.00000013 -.0585994 .105479 -.00000008 -14.042861 47.696499)" gradientUnits="userSpaceOnUse" r="21.166656" xlink:href="#b"/><radialGradient id="f" cx="450.908936" cy="189.579361" gradientTransform="matrix(.00000013 .0585994 -.105479 .00000008 37.857635 -5.64561)" gradientUnits="userSpaceOnUse" r="21.166656" xlink:href="#b"/><linearGradient id="g"><stop offset="0" stop-color="#ffa726"/><stop offset="1" stop-color="#ffb74d"/></linearGradient><linearGradient id="h" gradientUnits="userSpaceOnUse" x1="11.90736" x2="11.90736" xlink:href="#g" y1="21.02539814717" y2="2.17207757661"/><linearGradient id="i" gradientUnits="userSpaceOnUse" x1="11.90736" x2="11.90736" y1="20.03311814717" y2="3.16435757661"><stop offset="0" stop-color="#e0e0e0"/><stop offset="1" stop-color="#eee"/></linearGradient><linearGradient id="j" gradientUnits="userSpaceOnUse" x1="10.522663875" x2="10.522663875" xlink:href="#g" y1="15.42953075" y2="10.46811701563"/><path d="m5.707031 21.027344h12.402344v.992187h-12.402344zm0 0" fill="url(#a)"/><path d="m18.109375 21.027344h1.984375v-.996094h-1.984375zm0 0" fill="url(#c)"/><path d="m5.707031 21.027344h-1.984375v.992187h1.984375zm0 0" fill="url(#d)"/><path d="m5.707031 21.027344h-1.984375v-.996094h1.984375zm0 0" fill="url(#e)"/><path d="m18.109375 21.027344h1.984375v.992187h-1.984375zm0 0" fill="url(#f)"/><path d="m4.960938 2.171875c-.550782 0-.992188.441406-.992188.992187v16.867188c0 .550781.441406.996094.992188.996094h13.890624c.550782 0 .992188-.445313.992188-.996094v-11.289062l-6.566406-6.570313zm10.417968 0 4.464844 4.464844v-3.472657c0-.550781-.441406-.992187-.992188-.992187zm0 0" fill="url(#h)"/><path d="m5.457031 3.164062c-.273437 0-.496093.222657-.496093.496094v15.875c0 .277344.222656.496094.496093.496094h12.898438c.277343 0 .496093-.21875.496093-.496094v-10.417968l-5.953124-5.953126zm0 0" fill="url(#i)"/><path d="m4.960938 2.171875c-.550782 0-.992188.441406-.992188.992187v.25c0-.550781.441406-.992187.992188-.992187h8.316406l6.566406 6.570313v-.25l-6.566406-6.570313zm10.417968 0 .25.25h3.222656c.550782 0 .992188.441406.992188.992187v-.25c0-.550781-.441406-.992187-.992188-.992187zm0 0" fill="#fff" fill-opacity=".588235"/><path d="m5.457031 3.164062c-.273437 0-.496093.222657-.496093.496094v.371094c0-.273438.222656-.496094.496093-.496094h7.441407l5.953124 5.953125v-.371093l-5.953124-5.953126zm0 0" fill-opacity=".235294"/><path d="m4.960938 19.554688v.234374c0 .273438.222656.496094.496093.496094h12.898438c.277343 0 .496093-.222656.496093-.496094v-.234374c0 .273437-.21875.496093-.496093.496093h-12.898438c-.273437 0-.496093-.222656-.496093-.496093zm0 0" fill="#fff" fill-opacity=".392157"/><path d="m439.958009 255.093763c-22.04514 0-39.996182 17.951043-39.996182 39.996183v1279.877845c0 22.360071 17.951042 39.996183 39.996182 39.996183h1039.900749c22.360071 0 39.996183-17.636112 39.996183-39.996183v-839.919836l-479.954192-479.954192zm0 0" fill="none" stroke="#212121" stroke-linecap="round" stroke-linejoin="round" stroke-width="11.338583" transform="scale(.0124035)"/><path d="m15.378906 2.171875 4.464844 4.464844v-.242188l-4.222656-4.222656zm-11.410156 17.621094v.238281c0 .550781.441406.996094.992188.996094h13.890624c.550782 0 .992188-.445313.992188-.996094v-.238281c0 .546875-.441406.992187-.992188.992187h-13.890624c-.550782 0-.992188-.445312-.992188-.992187zm0 0" fill-opacity=".235294"/><path d="m399.961827 175.101398c-44.405211 0-79.992366 35.587155-79.992366 79.992365v1359.870211c0 44.40521 35.587155 80.307296 79.992366 80.307296h1119.893114c44.405211 0 79.992365-35.902086 79.992365-80.307296v-910.149354l-529.398291-529.713222zm839.919835 0 359.965644 359.965644v-279.973279c0-44.40521-35.587154-79.992365-79.992365-79.992365zm0 0" fill="none" stroke="#212121" stroke-linecap="round" stroke-linejoin="round" stroke-width="11.338583" transform="scale(.0124035)"/><path d="m10.695312 7.777344c-1.375 0-2.5 1.121094-2.5 2.496094 0 .570312.195313 1.097656.519532 1.519531l.589844-1.035157c.175781-.304687.492187-.5.84375-.519531.058593 0 .117187 0 .175781.007813.019531-.054688.050781-.105469.089843-.148438.1875-.21875.46875-.355468.777344-.355468h1.945313c-.246094-1.121094-1.25-1.964844-2.441407-1.964844zm.941407 2.6875c-.15625 0-.292969.066406-.386719.175781.113281.085937.214844.195313.289062.324219l1.984376 3.472656c.191406.335938.15625.722656-.019532 1.023438h2.101563c.285156 0 .515625-.230469.515625-.511719v-3.96875c0-.285157-.230469-.515625-.515625-.515625zm-1.328125.496094c-.007813 0-.015625 0-.019532 0-.175781.007812-.335937.105468-.421874.257812l-1.984376 3.472656c-.195312.34375.050782.769532.445313.769532h3.96875c.398437 0 .644531-.425782.449219-.769532l-1.984375-3.472656c-.09375-.164062-.269531-.261719-.453125-.257812zm0 0" fill="url(#j)"/><path d="m10.695312 7.777344c-1.375 0-2.5 1.121094-2.5 2.496094 0 .0625.003907.125.007813.1875.097656-1.289063 1.179687-2.3125 2.492187-2.3125 1.054688 0 1.964844.664062 2.328126 1.59375h.113281c-.246094-1.121094-1.25-1.964844-2.441407-1.964844zm.941407 2.6875c-.15625 0-.292969.066406-.386719.175781.082031.0625.160156.136719.222656.222656.050782-.019531.105469-.027343.164063-.027343h3.96875c.285156 0 .515625.230468.515625.515624v-.371093c0-.285157-.230469-.515625-.515625-.515625zm-1.328125.496094c-.007813 0-.015625 0-.019532 0-.175781.007812-.335937.105468-.421874.257812l-1.984376 3.472656c-.082031.144532-.085937.304688-.035156.441406.011719-.023437.023438-.046874.035156-.066406l1.984376-3.476562c.085937-.152344.246093-.25.421874-.257813h.019532c.183594-.003906.359375.097657.453125.257813l1.984375 3.476562c.011718.019532.023437.042969.03125.066406.054687-.136718.050781-.296874-.03125-.441406l-1.984375-3.472656c-.09375-.164062-.269531-.261719-.453125-.257812zm3.324218 4.148437c-.023437.125-.066406.246094-.128906.351563h.132813c.019531-.113282.019531-.234376-.003907-.351563zm0 0" fill="#fff" fill-opacity=".392157"/><path d="m11.191406 9.726562c-.308594 0-.589844.140626-.777344.355469-.039062.046875-.070312.09375-.089843.148438-.058594-.003907-.117188-.007813-.175781-.003907-.351563.015626-.667969.210938-.84375.515626l-.589844 1.035156c-.289063-.375-.476563-.832032-.511719-1.332032-.003906.0625-.007813.125-.007813.1875 0 .570313.195313 1.097657.519532 1.519532l.589844-1.039063c.175781-.304687.492187-.5.84375-.515625.058593-.003906.117187 0 .175781.007813.019531-.054688.050781-.105469.089843-.148438.1875-.21875.46875-.355469.777344-.355469h1.945313c-.027344-.128906-.066407-.253906-.113281-.375zm.28125 1.121094c-.089844.03125-.164062.082032-.222656.152344.113281.082031.214844.191406.289062.320312l1.984376 3.476563c.054687.09375.089843.195313.109374.300781.042969-.222656.011719-.460937-.109374-.675781l-1.984376-3.472656c-.019531-.035157-.042968-.066407-.066406-.101563zm4.648438 4.085938c0 .285156-.230469.515625-.515625.515625h-1.96875c-.019531.128906-.066407.257812-.132813.371093h2.101563c.285156 0 .515625-.230468.515625-.515624zm-8.273438.183594c-.128906.332031.113282.703124.480469.703124h3.96875c.371094 0 .609375-.371093.480469-.703124-.070313.1875-.25.332031-.480469.332031h-3.96875c-.226563 0-.40625-.144531-.480469-.332031zm0 0" fill-opacity=".235294"/><path d="m228.14488-49.099176c-29.330532 0-53.328241 23.914383-53.328241 53.244915 0 12.165505 4.166269 23.414431 11.082275 32.413572l12.582132-22.081225c3.749642-6.499379 10.498997-10.665648 17.998281-11.082275 1.249881 0 2.499762 0 3.749642.166651.416627-1.166556 1.08323-2.249785 1.916484-3.166365 3.999618-4.666221 9.999045-7.582609 16.58175-7.582609h41.496037c-5.249499-23.914383-26.66412-41.912664-52.07836-41.912664zm20.081416 57.327859c-3.333015 0-6.249404 1.416531-8.249213 3.749642 2.416436 1.833158 4.582896 4.166268 6.166078 6.916006l42.329291 74.076259c4.082944 7.165983 3.333015 15.415195-.416627 21.831249h44.829053c6.082752 0 10.998949-4.916197 10.998949-10.915624v-84.658583c0-6.082752-4.916197-10.998949-10.998949-10.998949zm-28.330628 10.582322c-.166651 0-.333302 0-.416627 0-3.749642.166651-7.165983 2.249786-8.999141 5.499475l-42.329291 74.07626c-4.166269 7.332633 1.08323 16.415099 9.499093 16.415099h84.658582c8.499189 0 13.748687-9.082466 9.582418-16.415099l-42.329291-74.07626c-1.999809-3.499665-5.749451-5.5828-9.665743-5.499475zm0 0" fill="none" stroke="#212121" stroke-linecap="round" stroke-linejoin="round" stroke-width="3" transform="matrix(.0468795 0 0 .0468795 0 10.079087)"/></svg>

<?xml version="1.0" encoding="UTF-8"?>
<svg xmlns="http://www.w3.org/2000/svg" xmlns:xlink="http://www.w3.org/1999/xlink" width="24px" height="24px" viewBox="0 0 24 24" version="1.1">
<defs>
<linearGradient id="linear0" gradientUnits="userSpaceOnUse" x1="254" y1="233.5" x2="254" y2="254.666672" gradientTransform="matrix(0.0558089,0,0,0.0468795,-1.972752,10.079089)">
<stop offset="0" style="stop-color:rgb(0%,0%,0%);stop-opacity:0.27451;"/>
<stop offset="1" style="stop-color:rgb(0%,0%,0%);stop-opacity:0;"/>
</linearGradient>
<radialGradient id="radial0" gradientUnits="userSpaceOnUse" cx="450.908936" cy="189.579361" fx="450.908936" fy="189.579361" r="21.166656" gradientTransform="matrix(0.000000130628,-0.0585994,-0.105479,-0.0000000761539,37.857636,47.696499)">
<stop offset="0" style="stop-color:rgb(0%,0%,0%);stop-opacity:0.313726;"/>
<stop offset="0.222222" style="stop-color:rgb(0%,0%,0%);stop-opacity:0.27451;"/>
<stop offset="1" style="stop-color:rgb(0%,0%,0%);stop-opacity:0;"/>
</radialGradient>
<radialGradient id="radial1" gradientUnits="userSpaceOnUse" cx="450.908936" cy="189.579361" fx="450.908936" fy="189.579361" r="21.166656" gradientTransform="matrix(-0.000000130628,0.0585994,0.105479,0.0000000761539,-14.042861,-5.645609)">
<stop offset="0" style="stop-color:rgb(0%,0%,0%);stop-opacity:0.313726;"/>
<stop offset="0.222222" style="stop-color:rgb(0%,0%,0%);stop-opacity:0.27451;"/>
<stop offset="1" style="stop-color:rgb(0%,0%,0%);stop-opacity:0;"/>
</radialGradient>
<radialGradient id="radial2" gradientUnits="userSpaceOnUse" cx="450.908936" cy="189.579361" fx="450.908936" fy="189.579361" r="21.166656" gradientTransform="matrix(-0.000000130628,-0.0585994,0.105479,-0.0000000761539,-14.042861,47.696499)">
<stop offset="0" style="stop-color:rgb(0%,0%,0%);stop-opacity:0.313726;"/>
<stop offset="0.222222" style="stop-color:rgb(0%,0%,0%);stop-opacity:0.27451;"/>
<stop offset="1" style="stop-color:rgb(0%,0%,0%);stop-opacity:0;"/>
</radialGradient>
<radialGradient id="radial3" gradientUnits="userSpaceOnUse" cx="450.908936" cy="189.579361" fx="450.908936" fy="189.579361" r="21.166656" gradientTransform="matrix(0.000000130628,0.0585994,-0.105479,0.0000000761539,37.857635,-5.64561)">
<stop offset="0" style="stop-color:rgb(0%,0%,0%);stop-opacity:0.313726;"/>
<stop offset="0.222222" style="stop-color:rgb(0%,0%,0%);stop-opacity:0.27451;"/>
<stop offset="1" style="stop-color:rgb(0%,0%,0%);stop-opacity:0;"/>
</radialGradient>
<linearGradient id="linear1" gradientUnits="userSpaceOnUse" x1="254" y1="233.5" x2="254" y2="-168.666672" gradientTransform="matrix(0.0468795,0,0,0.0468795,0,10.079087)">
<stop offset="0" style="stop-color:rgb(87.843138%,87.843138%,87.843138%);stop-opacity:1;"/>
<stop offset="1" style="stop-color:rgb(93.333334%,93.333334%,93.333334%);stop-opacity:1;"/>
</linearGradient>
<linearGradient id="linear2" gradientUnits="userSpaceOnUse" x1="413.712219" y1="-474.701691" x2="413.712219" y2="-72.535034" gradientTransform="matrix(0.0468795,0,0,0.0468795,0,10.079087)">
<stop offset="0" style="stop-color:rgb(100%,65.490198%,14.901961%);stop-opacity:1;"/>
<stop offset="1" style="stop-color:rgb(100%,71.764708%,30.19608%);stop-opacity:1;"/>
</linearGradient>
<linearGradient id="linear3" gradientUnits="userSpaceOnUse" x1="222.25" y1="106.5" x2="222.25" y2="0.666667" gradientTransform="matrix(0.0468795,0,0,0.0468795,0.0528149,10.432806)">
<stop offset="0" style="stop-color:rgb(100%,65.490198%,14.901961%);stop-opacity:1;"/>
<stop offset="1" style="stop-color:rgb(100%,71.764708%,30.19608%);stop-opacity:1;"/>
</linearGradient>
</defs>
<g id="surface1">
<path style=" stroke:none;fill-rule:nonzero;fill:url(#linear0);" d="M 5.707031 21.027344 L 18.109375 21.027344 L 18.109375 22.019531 L 5.707031 22.019531 Z M 5.707031 21.027344 "/>
<path style=" stroke:none;fill-rule:nonzero;fill:url(#radial0);" d="M 18.109375 21.027344 L 20.09375 21.027344 L 20.09375 20.03125 L 18.109375 20.03125 Z M 18.109375 21.027344 "/>
<path style=" stroke:none;fill-rule:nonzero;fill:url(#radial1);" d="M 5.707031 21.027344 L 3.722656 21.027344 L 3.722656 22.019531 L 5.707031 22.019531 Z M 5.707031 21.027344 "/>
<path style=" stroke:none;fill-rule:nonzero;fill:url(#radial2);" d="M 5.707031 21.027344 L 3.722656 21.027344 L 3.722656 20.03125 L 5.707031 20.03125 Z M 5.707031 21.027344 "/>
<path style=" stroke:none;fill-rule:nonzero;fill:url(#radial3);" d="M 18.109375 21.027344 L 20.09375 21.027344 L 20.09375 22.019531 L 18.109375 22.019531 Z M 18.109375 21.027344 "/>
<path style=" stroke:none;fill-rule:nonzero;fill:url(#linear1);" d="M 14.929688 2.171875 L 4.960938 2.171875 C 4.410156 2.171875 3.96875 2.613281 3.96875 3.164062 L 3.96875 20.03125 C 3.96875 20.582031 4.410156 21.027344 4.960938 21.027344 L 18.851562 21.027344 C 19.402344 21.027344 19.84375 20.582031 19.84375 20.03125 L 19.84375 6.679688 Z M 14.929688 2.171875 "/>
<path style=" stroke:none;fill-rule:nonzero;fill:url(#linear2);" d="M 14.929688 2.171875 L 19.84375 6.679688 L 19.84375 3.164062 C 19.84375 2.613281 19.402344 2.171875 18.851562 2.171875 Z M 14.929688 2.171875 "/>
<path style=" stroke:none;fill-rule:nonzero;fill:url(#linear3);" d="M 10.644531 7.773438 C 9.269531 7.773438 8.144531 8.894531 8.144531 10.269531 C 8.144531 10.839844 8.339844 11.367188 8.664062 11.789062 L 9.253906 10.753906 C 9.429688 10.449219 9.746094 10.253906 10.097656 10.234375 C 10.15625 10.234375 10.214844 10.234375 10.273438 10.242188 C 10.292969 10.1875 10.324219 10.136719 10.363281 10.09375 C 10.550781 9.875 10.832031 9.738281 11.140625 9.738281 L 13.085938 9.738281 C 12.839844 8.617188 11.835938 7.773438 10.644531 7.773438 Z M 11.585938 10.460938 C 11.429688 10.460938 11.292969 10.527344 11.199219 10.636719 C 11.3125 10.722656 11.414062 10.832031 11.488281 10.960938 L 13.472656 14.433594 C 13.664062 14.769531 13.628906 15.15625 13.449219 15.457031 L 15.554688 15.457031 C 15.839844 15.457031 16.070312 15.226562 16.070312 14.945312 L 16.070312 10.972656 C 16.070312 10.691406 15.839844 10.460938 15.554688 10.460938 Z M 10.257812 10.957031 C 10.25 10.957031 10.242188 10.957031 10.238281 10.957031 C 10.0625 10.964844 9.902344 11.0625 9.816406 11.214844 L 7.832031 14.6875 C 7.636719 15.03125 7.882812 15.457031 8.277344 15.457031 L 12.246094 15.457031 C 12.640625 15.457031 12.890625 15.03125 12.695312 14.6875 L 10.710938 11.214844 C 10.617188 11.050781 10.441406 10.953125 10.257812 10.957031 Z M 10.257812 10.957031 "/>
<path style=" stroke:none;fill-rule:nonzero;fill:rgb(0%,0%,0%);fill-opacity:0.235294;" d="M 3.96875 19.785156 L 3.96875 20.03125 C 3.96875 20.582031 4.410156 21.027344 4.960938 21.027344 L 18.851562 21.027344 C 19.402344 21.027344 19.84375 20.582031 19.84375 20.03125 L 19.84375 19.785156 C 19.84375 20.335938 19.402344 20.777344 18.851562 20.777344 L 4.960938 20.777344 C 4.410156 20.777344 3.96875 20.335938 3.96875 19.785156 Z M 3.96875 19.785156 "/>
<path style=" stroke:none;fill-rule:nonzero;fill:rgb(100%,100%,100%);fill-opacity:1;" d="M 4.960938 2.171875 C 4.410156 2.171875 3.96875 2.613281 3.96875 3.164062 L 3.96875 3.660156 C 3.96875 3.109375 4.410156 2.667969 4.960938 2.667969 L 14.929688 2.667969 L 19.84375 7.175781 L 19.84375 6.679688 L 14.929688 2.171875 Z M 4.960938 2.171875 "/>
<path style=" stroke:none;fill-rule:nonzero;fill:rgb(100%,100%,100%);fill-opacity:0.392157;" d="M 14.929688 2.171875 L 15.46875 2.667969 L 18.851562 2.667969 C 19.402344 2.667969 19.84375 3.109375 19.84375 3.660156 L 19.84375 3.164062 C 19.84375 2.613281 19.402344 2.171875 18.851562 2.171875 Z M 14.929688 2.171875 "/>
<path style=" stroke:none;fill-rule:nonzero;fill:rgb(0%,0%,0%);fill-opacity:0.235294;" d="M 14.929688 2.171875 L 19.84375 6.679688 L 19.84375 6.265625 L 15.378906 2.171875 Z M 14.929688 2.171875 "/>
<path style="fill:none;stroke-width:11.338583;stroke-linecap:round;stroke-linejoin:round;stroke:rgb(12.941177%,12.941177%,12.941177%);stroke-opacity:1;stroke-miterlimit:4;" d="M 1203.664647 175.101398 L 399.961827 175.101398 C 355.556616 175.101398 319.969461 210.688553 319.969461 255.093763 L 319.969461 1614.963974 C 319.969461 1659.369184 355.556616 1695.27127 399.961827 1695.27127 L 1519.854941 1695.27127 C 1564.260152 1695.27127 1599.847306 1659.369184 1599.847306 1614.963974 L 1599.847306 538.531278 Z M 1203.664647 175.101398 " transform="matrix(0.0124035,0,0,0.0124035,0,0)"/>
<path style="fill:none;stroke-width:3;stroke-linecap:round;stroke-linejoin:round;stroke:rgb(12.941177%,12.941177%,12.941177%);stroke-opacity:1;stroke-miterlimit:4;" d="M 318.469588 -168.671091 L 423.292911 -72.513607 L 423.292911 -147.506445 C 423.292911 -159.255323 413.877143 -168.671091 402.128265 -168.671091 Z M 318.469588 -168.671091 " transform="matrix(0.0468795,0,0,0.0468795,0,10.079087)"/>
<path style=" stroke:none;fill-rule:nonzero;fill:rgb(100%,100%,100%);fill-opacity:0.392157;" d="M 10.644531 7.773438 C 9.269531 7.773438 8.144531 8.894531 8.144531 10.269531 C 8.144531 10.332031 8.148438 10.394531 8.152344 10.457031 C 8.25 9.167969 9.332031 8.144531 10.644531 8.144531 C 11.699219 8.144531 12.609375 8.808594 12.972656 9.738281 L 13.085938 9.738281 C 12.839844 8.617188 11.835938 7.773438 10.644531 7.773438 Z M 11.585938 10.460938 C 11.429688 10.460938 11.292969 10.527344 11.199219 10.636719 C 11.28125 10.699219 11.359375 10.773438 11.421875 10.859375 C 11.472656 10.839844 11.527344 10.832031 11.585938 10.832031 L 15.554688 10.832031 C 15.839844 10.832031 16.070312 11.0625 16.070312 11.347656 L 16.070312 10.972656 C 16.070312 10.691406 15.839844 10.460938 15.554688 10.460938 Z M 10.257812 10.957031 C 10.25 10.957031 10.242188 10.957031 10.238281 10.957031 C 10.0625 10.964844 9.902344 11.0625 9.816406 11.214844 L 7.832031 14.6875 C 7.75 14.832031 7.746094 14.992188 7.796875 15.128906 C 7.808594 15.105469 7.820312 15.082031 7.832031 15.058594 L 9.816406 11.585938 C 9.902344 11.433594 10.0625 11.335938 10.238281 11.328125 C 10.242188 11.328125 10.25 11.328125 10.257812 11.328125 C 10.441406 11.324219 10.617188 11.425781 10.710938 11.585938 L 12.695312 15.058594 C 12.707031 15.082031 12.71875 15.105469 12.726562 15.128906 C 12.78125 14.992188 12.777344 14.832031 12.695312 14.6875 L 10.710938 11.214844 C 10.617188 11.050781 10.441406 10.953125 10.257812 10.957031 Z M 13.582031 15.105469 C 13.558594 15.230469 13.515625 15.347656 13.449219 15.457031 L 13.585938 15.457031 C 13.605469 15.34375 13.605469 15.222656 13.582031 15.105469 Z M 13.582031 15.105469 "/>
<path style=" stroke:none;fill-rule:nonzero;fill:rgb(0%,0%,0%);fill-opacity:0.235294;" d="M 11.140625 9.722656 C 10.832031 9.722656 10.550781 9.863281 10.363281 10.078125 C 10.324219 10.125 10.292969 10.171875 10.273438 10.226562 C 10.214844 10.222656 10.15625 10.21875 10.097656 10.222656 C 9.746094 10.238281 9.429688 10.433594 9.253906 10.738281 L 8.664062 11.773438 C 8.375 11.398438 8.1875 10.941406 8.152344 10.441406 C 8.148438 10.503906 8.144531 10.566406 8.144531 10.628906 C 8.144531 11.199219 8.339844 11.726562 8.664062 12.148438 L 9.253906 11.109375 C 9.429688 10.804688 9.746094 10.609375 10.097656 10.59375 C 10.15625 10.589844 10.214844 10.59375 10.273438 10.601562 C 10.292969 10.546875 10.324219 10.496094 10.363281 10.453125 C 10.550781 10.234375 10.832031 10.097656 11.140625 10.097656 L 13.085938 10.097656 C 13.058594 9.96875 13.019531 9.84375 12.972656 9.722656 Z M 11.421875 10.84375 C 11.332031 10.875 11.257812 10.925781 11.199219 10.996094 C 11.3125 11.078125 11.414062 11.1875 11.488281 11.316406 L 13.472656 14.789062 L 13.472656 14.792969 C 13.527344 14.886719 13.5625 14.988281 13.582031 15.09375 C 13.625 14.871094 13.59375 14.632812 13.472656 14.417969 L 11.488281 10.945312 C 11.46875 10.910156 11.445312 10.875 11.421875 10.84375 Z M 16.070312 14.929688 C 16.070312 15.214844 15.839844 15.445312 15.554688 15.445312 L 13.585938 15.445312 C 13.566406 15.574219 13.519531 15.703125 13.449219 15.816406 L 15.554688 15.816406 C 15.839844 15.816406 16.070312 15.585938 16.070312 15.300781 Z M 7.796875 15.113281 C 7.667969 15.445312 7.910156 15.816406 8.277344 15.816406 L 12.246094 15.816406 C 12.617188 15.816406 12.855469 15.445312 12.726562 15.113281 C 12.65625 15.300781 12.476562 15.445312 12.246094 15.445312 L 8.277344 15.445312 C 8.050781 15.445312 7.871094 15.300781 7.796875 15.113281 Z M 7.796875 15.113281 "/>
<path style="fill:none;stroke-width:3;stroke-linecap:round;stroke-linejoin:round;stroke:rgb(12.941177%,12.941177%,12.941177%);stroke-opacity:1;stroke-miterlimit:4;" d="M 227.06165 -49.182501 C 197.731118 -49.182501 173.733409 -25.268118 173.733409 4.062414 C 173.733409 16.227919 177.899678 27.476845 184.815684 36.475985 L 197.397816 14.394761 C 201.147458 7.895381 207.896814 3.729112 215.396097 3.312486 C 216.645978 3.312486 217.895859 3.312486 219.145739 3.479136 C 219.562366 2.312581 220.228969 1.229351 221.062223 0.312772 C 225.061841 -4.353449 231.061268 -7.269837 237.643973 -7.269837 L 279.14001 -7.269837 C 273.890511 -31.18422 252.47589 -49.182501 227.06165 -49.182501 Z M 247.143066 8.145357 C 243.810051 8.145357 240.893662 9.561889 238.893853 11.894999 C 241.310289 13.728158 243.476749 16.061268 245.059931 18.811005 L 287.389222 92.887265 C 291.472166 100.053247 290.722237 108.302459 286.88927 114.718513 L 331.801648 114.718513 C 337.8844 114.718513 342.800598 109.802316 342.800598 103.802889 L 342.800598 19.060982 C 342.800598 13.061555 337.8844 8.145357 331.801648 8.145357 Z M 218.812438 18.72768 C 218.645787 18.72768 218.479136 18.72768 218.395811 18.72768 C 214.646169 18.894331 211.229829 20.977465 209.39667 24.227155 L 167.067379 98.303414 C 162.90111 105.636047 168.150609 114.718513 176.566472 114.718513 L 261.225054 114.718513 C 269.640917 114.718513 274.973741 105.636047 270.807473 98.303414 L 228.478181 24.227155 C 226.478372 20.727489 222.72873 18.644355 218.812438 18.72768 Z M 218.812438 18.72768 " transform="matrix(0.0468795,0,0,0.0468795,0,10.079087)"/>
</g>
</svg>
